T: Da Ferry
M: 4/4
L: 1/8
K: Dmaj
|:D D/A|Em7 D/F#|G D/F#|Em7 A7|D D/A|Em7 A7|G A7| D D/A:||:D D/A|D Ebdim|Em G/D|A9/C# A7|D D/A|D Ebdim|Em7 A7|D D/A:||:D A/D|Em7 F#/D|G F#/D|Em7 A7|D A/D|Em7 A7|G A7| D A/D:||:D A/D|D Ebdim|Em D/G|C#/A9 A7|D A/D|D Ebdim|Em7 A7|D A/D:|,
